logo/fedora.svg

<?xml version="1.0" encoding="UTF-8" standalone="no"?>
<svg width="256px" height="256px" viewBox="0 0 256 256" version="1.1" xmlns="http://www.w3.org/2000/svg" xmlns:xlink="http://www.w3.org/1999/xlink" preserveAspectRatio="xMidYMid">
	<g>
		<path d="M256,128.004 C256,57.31 198.691,0 127.998,0 C57.336,0 0.05,57.262 0,127.914 L0,226.968 C0.038,243.01 13.049,255.997 29.101,255.997 L128.05,255.997 C198.72,255.969 256,198.679 256,128.004" fill="#294172"></path>
		<path d="M165.58,30.307 C132.471,30.307 105.535,57.242 105.535,90.352 L105.535,122.222 L73.797,122.222 C40.688,122.222 13.752,149.159 13.752,182.268 C13.752,215.376 40.688,242.313 73.797,242.313 C106.906,242.313 133.842,215.376 133.842,182.268 L133.842,150.397 L165.58,150.397 C198.689,150.397 225.626,123.461 225.626,90.352 C225.626,57.242 198.689,30.307 165.58,30.307 L165.58,30.307 Z M105.757,182.268 C105.757,199.89 91.42,214.227 73.797,214.227 C56.174,214.227 41.837,199.89 41.837,182.268 C41.837,164.645 56.174,150.308 73.797,150.308 L105.535,150.308 L105.535,150.397 L105.757,150.397 L105.757,182.268 L105.757,182.268 Z M165.58,122.312 L133.842,122.312 L133.842,122.222 L133.621,122.222 L133.621,90.352 C133.621,72.729 147.958,58.392 165.58,58.392 C183.202,58.392 197.54,72.729 197.54,90.352 C197.54,107.975 183.202,122.312 165.58,122.312 L165.58,122.312 Z" fill="#3C6EB4"></path>
		<path d="M178.851,32.128 C174.191,30.91 170.613,30.342 165.58,30.342 C132.403,30.342 105.505,57.241 105.505,90.416 L105.505,122.258 L80.345,122.258 C72.5,122.258 66.16,128.423 66.165,136.254 C66.165,144.036 72.435,150.227 80.197,150.227 L101.028,150.231 C103.501,150.231 105.507,152.231 105.507,154.7 L105.507,182.253 C105.476,199.744 91.288,213.912 73.797,213.912 C67.872,213.912 66.405,213.136 62.36,213.136 C53.863,213.136 48.178,218.832 48.178,226.664 C48.18,233.143 53.732,238.713 60.526,240.491 C65.186,241.709 68.764,242.278 73.797,242.278 C106.974,242.278 133.872,215.379 133.872,182.203 L133.872,150.362 L159.032,150.362 C166.877,150.362 173.217,144.197 173.212,136.366 C173.212,128.583 166.942,122.393 159.18,122.393 L138.349,122.389 C135.876,122.389 133.87,120.388 133.87,117.919 L133.87,90.366 C133.901,72.875 148.089,58.707 165.58,58.707 C171.505,58.707 172.972,59.484 177.017,59.484 C185.514,59.484 191.199,53.787 191.199,45.956 C191.197,39.476 185.645,33.906 178.851,32.128" fill="#FFFFFF"></path>
	</g>
</svg>

<svg viewBox="0 0 256 256" xmlns="http://www.w3.org/2000/svg"><path fill="#294172" d="M256 128.004C256 57.3 198.691 0 127.99 0 57.32 0 .05 57.26-.01 127.91v99.054c.038 16.04 13.049 29.02 29.1 29.02h98.94c70.67-.03 127.95-57.32 127.95-128"/><path fill="#3C6EB4" d="M165.58 30.3c-33.11 0-60.05 26.93-60.05 60.04v31.87H73.79c-33.109 0-60.045 26.93-60.045 60.04 0 33.1 26.936 60.04 60.045 60.04 33.1 0 60.04-26.94 60.04-60.05v-31.88h31.73c33.1 0 60.04-26.94 60.04-60.05s-26.94-60.05-60.05-60.05v0ZM105.75 182.26c0 17.62-14.34 31.95-31.96 31.95 -17.63 0-31.96-14.34-31.96-31.96 0-17.63 14.33-31.96 31.96-31.96h31.738v.08h.22v31.87 0Zm59.82-59.96h-31.74v-.09h-.23V90.34c0-17.63 14.33-31.96 31.95-31.96 17.62 0 31.96 14.33 31.96 31.96 0 17.62-14.34 31.96-31.96 31.96v0Z"/><path fill="#FFF" d="M178.85 32.12c-4.66-1.22-8.24-1.79-13.28-1.79 -33.18 0-60.08 26.899-60.08 60.07v31.84H80.33c-7.85 0-14.19 6.16-14.18 13.99 0 7.78 6.27 13.97 14.03 13.97l20.83 0c2.47 0 4.47 2 4.47 4.46v27.55c-.04 17.49-14.22 31.65-31.71 31.65 -5.93 0-7.4-.78-11.44-.78 -8.497 0-14.19 5.69-14.19 13.52 0 6.47 5.55 12.04 12.34 13.82 4.66 1.21 8.238 1.78 13.27 1.78 33.17 0 60.07-26.899 60.07-60.08v-31.85h25.16c7.84 0 14.18-6.17 14.18-14 0-7.79-6.27-13.98-14.04-13.98l-20.84-.01c-2.48 0-4.48-2.01-4.48-4.47V90.25c.03-17.5 14.21-31.659 31.71-31.659 5.92 0 7.39.77 11.43.77 8.49 0 14.18-5.7 14.18-13.53 -.01-6.48-5.56-12.05-12.35-13.83"/></svg>
